OBS Studio/Fluent Dark Grey/right.svg

<svg width="24" height="24" fill="none" viewBox="0 0 24 24" xmlns="http://www.w3.org/2000/svg"><path d="m8.2929 4.2929c-0.39052 0.39053-0.39052 1.0237 0 1.4142l6.2929 6.2929-6.2929 6.2929c-0.39052 0.3905-0.39052 1.0237 0 1.4142 0.39053 0.3905 1.0237 0.3905 1.4142 0l7-7c0.3905-0.3905 0.3905-1.0237 0-1.4142l-7-7c-0.39053-0.39052-1.0237-0.39052-1.4142 0z" fill="#fff"/></svg>

<svg width="24" height="24" viewBox="0 0 24 24" fill="none" xmlns="http://www.w3.org/2000/svg">
<path d="M8.29289 4.29289C7.90237 4.68342 7.90237 5.31658 8.29289 5.70711L14.5858 12L8.29289 18.2929C7.90237 18.6834 7.90237 19.3166 8.29289 19.7071C8.68342 20.0976 9.31658 20.0976 9.70711 19.7071L16.7071 12.7071C17.0976 12.3166 17.0976 11.6834 16.7071 11.2929L9.70711 4.29289C9.31658 3.90237 8.68342 3.90237 8.29289 4.29289Z" fill="white"/>
</svg>
